X: 18407
T: Hunter's
R: hornpipe
M: 4/4
K: Gmajor
|:dc|B2AB d^cde|=fe=ce d2d^f|g2dc BAGB|(3ABA AG A2Bc|
defd (3gag dB|cBAc B2AF|GBdg ecAF|G2GF G2:|
|:dB|G2GF G2AB|cBAG FAdB|G2GF GBdg|fdef (3d^cd dB|
G2(3GBd gfed|cBAG (3FED AF|GBdg ecAF|G2GF G2:|

